assets/img/braze_icons/align-top-02.svg

<svg fill="none" height="24" viewBox="0 0 24 24" width="24" xmlns="http://www.w3.org/2000/svg"><g clip-rule="evenodd" fill="#801ed7" fill-rule="evenodd"><path d="m16.968 18h.064c.4386 0 .8171 0 1.1304-.0213.3298-.0226.6597-.0721.9857-.2071.735-.3044 1.3191-.8885 1.6235-1.6235.135-.326.1845-.6559.2071-.9857.0213-.3133.0213-.6918.0213-1.1304v-8.06399c0-.43865 0-.81713-.0213-1.13039-.0226-.32983-.0721-.65974-.2071-.98567-.3044-.73508-.8885-1.31911-1.6235-1.62359-.326-.135-.6559-.1845-.9857-.20701-.3133-.02137-.6918-.02136-1.1304-.02135h-.064c-.4386-.00001-.8171-.00002-1.1304.02135-.3298.02251-.6597.07201-.9856.20701-.7351.30449-1.3192.88851-1.6236 1.62359-.135.32593-.1845.65584-.207.98567-.0214.31326-.0214.69175-.0214 1.1304v8.06398c0 .4386 0 .8171.0214 1.1304.0225.3298.072.6597.207.9857.3044.735.8885 1.3191 1.6236 1.6235.3259.135.6558.1845.9856.2071.3133.0213.6918.0213 1.1304.0213z"/><path d="m6.96802 22h.06397c.43865 0 .81714 0 1.1304-.0213.32982-.0226.65973-.0721.98566-.2071.73509-.3044 1.31915-.8885 1.62355-1.6235.135-.326.1845-.6559.2071-.9857.0213-.3133.0213-.6918.0213-1.1304v-12.06399c0-.43865 0-.81713-.0213-1.13039-.0226-.32983-.0721-.65974-.2071-.98567-.3044-.73508-.88846-1.31911-1.62355-1.62359-.32593-.135-.65584-.1845-.98567-.20701-.31325-.02137-.69174-.02136-1.13039-.02135h-.06398c-.43865-.00001-.81713-.00002-1.13039.02135-.32983.02251-.65974.07201-.98567.20701-.73508.30448-1.31911.88851-1.62359 1.62359-.135.32593-.18451.65584-.20701.98567-.02137.31326-.02136.69175-.02135 1.1304v12.06398c-.00001.4386-.00002.8171.02135 1.1304.02251.3298.07201.6597.20701.9857.30449.735.88851 1.3191 1.62359 1.6235.32593.135.65584.1845.98567.2071.31326.0213.69175.0213 1.1304.0213z"/></g></svg>

<svg width="24" height="24" viewBox="0 0 24 24" fill="none" xmlns="http://www.w3.org/2000/svg">
<path fill-rule="evenodd" clip-rule="evenodd" d="M16.968 18H17.032C17.4706 18 17.8491 18 18.1624 17.9787C18.4922 17.9561 18.8221 17.9066 19.1481 17.7716C19.8831 17.4672 20.4672 16.8831 20.7716 16.1481C20.9066 15.8221 20.9561 15.4922 20.9787 15.1624C21 14.8491 21 14.4706 21 14.032V5.96801C21 5.52936 21 5.15088 20.9787 4.83762C20.9561 4.50779 20.9066 4.17788 20.7716 3.85195C20.4672 3.11687 19.8831 2.53284 19.1481 2.22836C18.8221 2.09336 18.4922 2.04386 18.1624 2.02135C17.8491 1.99998 17.4706 1.99999 17.032 2L16.968 2C16.5294 1.99999 16.1509 1.99998 15.8376 2.02135C15.5078 2.04386 15.1779 2.09336 14.852 2.22836C14.1169 2.53285 13.5328 3.11687 13.2284 3.85195C13.0934 4.17788 13.0439 4.50779 13.0214 4.83762C13 5.15088 13 5.52937 13 5.96802L13 14.032C13 14.4706 13 14.8491 13.0214 15.1624C13.0439 15.4922 13.0934 15.8221 13.2284 16.1481C13.5328 16.8831 14.1169 17.4672 14.852 17.7716C15.1779 17.9066 15.5078 17.9561 15.8376 17.9787C16.1509 18 16.5294 18 16.968 18Z" fill="#801ED7"/>
<path fill-rule="evenodd" clip-rule="evenodd" d="M6.96802 22H7.03199C7.47064 22 7.84913 22 8.16239 21.9787C8.49221 21.9561 8.82212 21.9066 9.14805 21.7716C9.88314 21.4672 10.4672 20.8831 10.7716 20.1481C10.9066 19.8221 10.9561 19.4922 10.9787 19.1624C11 18.8491 11 18.4706 11 18.032L11 5.96801C11 5.52936 11 5.15088 10.9787 4.83762C10.9561 4.50779 10.9066 4.17788 10.7716 3.85195C10.4672 3.11687 9.88314 2.53284 9.14805 2.22836C8.82212 2.09336 8.49221 2.04386 8.16238 2.02135C7.84913 1.99998 7.47064 1.99999 7.03199 2L6.96801 2C6.52936 1.99999 6.15088 1.99998 5.83762 2.02135C5.50779 2.04386 5.17788 2.09336 4.85195 2.22836C4.11687 2.53284 3.53284 3.11687 3.22836 3.85195C3.09336 4.17788 3.04385 4.50779 3.02135 4.83762C2.99998 5.15088 2.99999 5.52937 3 5.96802L3 18.032C2.99999 18.4706 2.99998 18.8491 3.02135 19.1624C3.04386 19.4922 3.09336 19.8221 3.22836 20.1481C3.53285 20.8831 4.11687 21.4672 4.85195 21.7716C5.17788 21.9066 5.50779 21.9561 5.83762 21.9787C6.15088 22 6.52937 22 6.96802 22Z" fill="#801ED7"/>
</svg>
